X: 2
T: Cranking Out
R: reel
M: 4/4
L: 1/8
K: Dmix
D2 AD BDAD|(3FED AD BcGE|(3FED AD BDAB|ccAc EcGE|
fdAd FADg|fdAB cGEg|fdAd FADB|cBcG EDEg|
D2 AD BDAD|(3FED AD BcGE|(3FED AD BDAB|ccGE DEGg|
fdAd FADg|fdAB cGEg|fdAd FADB|cBcG EDEC`|

T: The Lady's Cup Of Tea
R: reel
M: 4/4
L: 1/8
K: Dmix
A2dA cAGE | ABAG EGG2 | A2dA cAGE | ABAG EDD2 |
A2dA cAGE | ABAG EGG2 | A2dA cAG2 | EDGE EDD2 |
edcd egg2 | eaa2 egg2 | edcd egg2 | eage d2 d2 |
edcd egg2 | eaa2 egg2 | edcd egge | aege fedc ||